assets/icons/drive/harddisk.svg

<?xml version="1.0" encoding="UTF-8" standalone="no"?>
<svg viewBox="0 0 24 24" height="24" width="24" version="1.1" id="svg10" sodipodi:docname="harddisk.svg" inkscape:version="1.1 (ce6663b3b7, 2021-05-25)"
   xmlns:inkscape="http://www.inkscape.org/namespaces/inkscape"
   xmlns:sodipodi="http://sodipodi.sourceforge.net/DTD/sodipodi-0.dtd"
   xmlns="http://www.w3.org/2000/svg"
   xmlns:svg="http://www.w3.org/2000/svg">
   <defs id="defs14" />
   <sodipodi:namedview id="namedview12" pagecolor="#ffffff" bordercolor="#666666" borderopacity="1.0" inkscape:pageshadow="2" inkscape:pageopacity="0.0" inkscape:pagecheckerboard="0" showgrid="true" inkscape:snap-page="true" inkscape:zoom="8" inkscape:cx="1.8125" inkscape:cy="7.6875" inkscape:window-width="1920" inkscape:window-height="1016" inkscape:window-x="0" inkscape:window-y="27" inkscape:window-maximized="1" inkscape:current-layer="svg10" inkscape:snap-grids="false">
      <inkscape:grid type="xygrid" id="grid957" />
      <inkscape:grid type="xygrid" id="grid825" dotted="true" spacingx="0.5" spacingy="0.5" empspacing="10" />
   </sodipodi:namedview>
   <path id="path1416" style="fill:#808080;fill-rule:evenodd;stroke-width:0.5;stroke-linecap:round;fill-opacity:1" d="M 12 12 A 2 2 0 0 0 10 14 A 2 2 0 0 0 12 16 A 2 2 0 0 0 14 14 A 2 2 0 0 0 12 12 z M 12 13 A 1 1 0 0 1 13 14 A 1 1 0 0 1 12 15 A 1 1 0 0 1 11 14 A 1 1 0 0 1 12 13 z " />
   <path style="color:#000000;fill:#808080;-inkscape-stroke:none;fill-opacity:1" d="m 8.5,2 c -1.4999985,0 -2.5560503,-0.050745 -3.3828125,0.4453125 -0.4133811,0.2480287 -0.7199379,0.6559075 -0.8886719,1.1621094 -0.1687339,0.5062019 -0.2285156,1.1148011 -0.2285156,1.8925781 v 13 c 0,0.777777 0.059782,1.386376 0.2285156,1.892578 0.168734,0.506202 0.4752908,0.914081 0.8886719,1.162109 0.8267622,0.496058 1.882814,0.445313 3.3828125,0.445313 h 7 c 1.499998,0 2.55605,0.05074 3.382812,-0.445313 0.413382,-0.248028 0.719938,-0.655907 0.888672,-1.162109 0.168734,-0.506202 0.228516,-1.114801 0.228516,-1.892578 v -13 c 0,-0.777777 -0.05978,-1.3863762 -0.228516,-1.8925781 -0.168734,-0.5062019 -0.47529,-0.9140807 -0.888672,-1.1621094 -0.826762,-0.4960573 -1.882814,-0.4453125 -3.382812,-0.4453125 z m 0,1 h 7 c 1.499998,0 2.443951,0.050746 2.867187,0.3046875 0.211619,0.126971 0.342563,0.2815934 0.455079,0.6191406 0.112515,0.3375473 0.177734,0.8539504 0.177734,1.5761719 v 13 c 0,0.722221 -0.06522,1.238625 -0.177734,1.576172 -0.112516,0.337547 -0.24346,0.49217 -0.455079,0.61914 -0.423236,0.253942 -1.367188,0.304688 -2.867187,0.304688 h -7 c -1.4999985,0 -2.443951,-0.05075 -2.8671875,-0.304688 -0.2116183,-0.12697 -0.3425624,-0.281593 -0.4550781,-0.61914 -0.1125158,-0.337547 -0.1777344,-0.853951 -0.1777344,-1.576172 v -13 c 0,-0.7222215 0.065219,-1.2386246 0.1777344,-1.5761719 0.1125157,-0.3375472 0.2434598,-0.4921696 0.4550781,-0.6191406 0.4232365,-0.2539419 1.367189,-0.3046875 2.8671875,-0.3046875 z" id="path860" />
   <path id="path1419" style="fill:#808080;fill-rule:evenodd;stroke-width:0.5;stroke-linecap:round;fill-opacity:1" d="M 11.925781 9 C 11.294576 9.0092793 10.670634 9.1385819 10.085938 9.3808594 C 7.7675896 10.341173 6.520155 12.871135 7.1699219 15.294922 C 7.8197667 17.718239 10.164899 19.284724 12.652344 18.957031 C 15.140074 18.629662 16.999884 16.509178 17 14 L 16 14 C 15.99949 16.007176 14.511529 17.703167 12.521484 17.964844 C 10.531942 18.226366 8.6565411 16.973314 8.1367188 15.035156 C 7.6172493 13.096583 8.6147468 11.073184 10.46875 10.304688 C 12.033081 9.6607702 13.833343 10.070561 14.964844 11.328125 L 14.146484 12.146484 L 14.853516 12.853516 L 16.353516 11.353516 L 15.669922 10.623047 C 14.773292 9.6436248 13.523895 9.0610879 12.197266 9.0039062 C 12.106921 9.0003381 12.015953 8.9986744 11.925781 9 z " />
</svg>

<svg height="24" width="24" xmlns="http://www.w3.org/2000/svg"><path style="fill:gray;stroke-width:.5;stroke-linecap:round;fill-opacity:1" d="M12 12a2 2 0 0 0-2 2 2 2 0 0 0 2 2 2 2 0 0 0 2-2 2 2 0 0 0-2-2zm0 1a1 1 0 0 1 1 1 1 1 0 0 1-1 1 1 1 0 0 1-1-1 1 1 0 0 1 1-1z"/><path style="color:#000;fill:gray;-inkscape-stroke:none;fill-opacity:1" d="M8.5 2c-1.5 0-2.556-.05-3.383.445-.413.248-.72.656-.888 1.162C4.059 4.114 4 4.722 4 5.5v13c0 .778.06 1.386.229 1.893.168.506.475.914.888 1.162C5.944 22.05 7 22 8.5 22h7c1.5 0 2.556.05 3.383-.445.413-.248.72-.656.888-1.162.17-.507.229-1.115.229-1.893v-13c0-.778-.06-1.386-.229-1.893-.168-.506-.475-.914-.888-1.162C18.056 1.95 17 2 15.5 2zm0 1h7c1.5 0 2.444.05 2.867.305.212.127.343.281.455.619.113.337.178.854.178 1.576v13c0 .722-.065 1.239-.178 1.576-.112.338-.243.492-.455.62C17.944 20.948 17 21 15.5 21h-7c-1.5 0-2.444-.05-2.867-.305-.212-.127-.343-.281-.455-.619C5.065 19.74 5 19.222 5 18.5v-13c0-.722.065-1.239.178-1.576.112-.338.243-.492.455-.62C6.056 3.052 7 3 8.5 3z"/><path style="fill:gray;stroke-width:.5;stroke-linecap:round;fill-opacity:1" d="M11.926 9A5 5 0 1 0 17 14h-1a4 4 0 1 1-5.531-3.695 4 4 0 0 1 4.496 1.023l-.819.818.708.708 1.5-1.5-.684-.731A5 5 0 0 0 11.926 9z"/></svg>
